X:51
T: ALS SCHONDILG NOCH EIN KLEIN KIND WAR
N: E0041A
O: Europa, Mitteleuropa, Deutschland, Niederrhein
R: erzaehlendes Volks - Lied, Ritter -, Raeuber - Sage
M: 3/4
L: 1/8
K: E
=D=GA | B3=cBA | =G3
=DGA | B3=cBA | =G3
FEF | =G2ABGF | E3
FEF | =G2ABGF | E3

